X: 32
T: 32. Nun danket alle Gott
N: Derived from chor032.krn
C: Johann Sebastian Bach
%%abc-version 2.0
%%abcx-abcm2ps-target-version 5.9.1 (29 Sep 2008)
%%abc-creator hum2abc beta
%%abcx-conversion-date 2019/03/11 17:28:17
%%abc-edited-by Craig Stuart Sapp
%%humdrum-veritas 1803799901
%%humdrum-veritas-data 2068953899
%%
%%barnumbers 0
L: 1/4
M: C
%%staves [1 2 3 4]
V: 1 clef=treble
V: 2 clef=treble
V: 3 clef=treble-8
V: 4 clef=bass
K: A
[V:1] e [I:setbarnb 1]| 
[V:2] A | 
[V:3] c | 
[V:4] A,, | 
[V:1] eeff | 
[V:2] AAAA | 
[V:3] ccdd | 
[V:4] A,/B,/ C/A,/ D,/E,/ F,/D,/ | 
[V:1] !fermata!e2zc | 
[V:2] !fermata!A2xA | 
[V:3] !fermata!c2xf | 
[V:4] !fermata!A,2zA, | 
[V:1] dcBc/d/ | 
[V:2] BAGA | 
[V:3] eeee | 
[V:4] G,A,E,/D,/ C,/A,,/ | 
[V:1] B2!fermata!A :|]  
[V:2] A/F/G!fermata!E :|]  
[V:3] e/d//c//d!fermata!c :|]  
[V:4] E,2!fermata!A,, :|]  
[V:1] B [I:setbarnb 5]| 
[V:2] G/F/ | 
[V:3] B/A/ | 
[V:4] E, | 
[V:1] BBcc | 
[V:2] EEEE | 
[V:3] G/A/B3/A//G//A | 
[V:4] E,/F,/ G,/E,/ A,,/B,,/ C,/A,,/ | 
[V:1] !fermata!B2zB | 
[V:2] !fermata!E2xG | 
[V:3] !fermata!G2xe | 
[V:4] !fermata!E,,2zE, | 
[V:1] c/^d/eed | 
[V:2] AGFF | 
[V:3] ee/B/cB | 
[V:4] A,/B,/ C/G,/ A,/F,/ B,/B,,/ | 
[V:1] !fermata!e2ze | 
[V:2] !fermata!G2xA | 
[V:3] !fermata!B2xc | 
[V:4] !fermata!E,2zA, | 
[V:1] fedc | 
[V:2] A/B/cc/B/ B/^A/ | 
[V:3] dcf=g/f/ | 
[V:4] D/C/B,/^A,/ B,/D,/E,/F,/ | 
[V:1] !fermata!d2zc | 
[V:2] !fermata!B2x=A | 
[V:3] !fermata!f2xe | 
[V:4] !fermata!B,,2zC,/D,/ | 
[V:1] Bc/d/B3/A/ | 
[V:2] GAAG | 
[V:3] ee/f/ f/d/ B/e/ | 
[V:4] E,A,/F,/ D,/B,,/ E,/E,,/ | 
[V:1] !fermata!A3 |]  
[V:2] !fermata!E3 |]  
[V:3] !fermata!c3 |]  
[V:4] !fermata!A,,3 |]  



